X:49
T:Polska ur Petter Dufvas notbok (Ma6-49)
R:Polska
O:Verkelbäck, Småland
B:Petter Dufvas notbok
S:Petter Dufva
N:Smus Ma6 bild 51
M:3/4
L:1/8
K:D
Ad dd d2|Ae ee e2|fe/f/ gfed|edcB A2|
Ad dd d2|Ae ee e2|fe/f/ gfed|ed/c/ d2 D2:|
|:a2 gfed|g2 fedc|f2 edcB|edcB A2|
Ad dd d2|Ae ee e2|fe/f/ gfed|ed/c/ d2 D2:|

